icon/ir/stats-report.svg

<svg stroke-width="1.5" viewBox="0 0 24 24" fill="none" xmlns="http://www.w3.org/2000/svg" height="1em" width="1em">
  <path d="M10 9H6" stroke="currentColor" stroke-linecap="round" stroke-linejoin="round"/>
  <path d="M15.5 11C14.1193 11 13 9.88071 13 8.5C13 7.11929 14.1193 6 15.5 6C16.8807 6 18 7.11929 18 8.5C18 9.88071 16.8807 11 15.5 11Z" stroke="currentColor" stroke-linecap="round" stroke-linejoin="round"/>
  <path d="M6 6H9" stroke="currentColor" stroke-linecap="round" stroke-linejoin="round"/>
  <path d="M18 18L13.5 15L11 17L6 13" stroke="currentColor" stroke-linecap="round" stroke-linejoin="round"/>
  <path d="M3 20.4V3.6C3 3.26863 3.26863 3 3.6 3H20.4C20.7314 3 21 3.26863 21 3.6V20.4C21 20.7314 20.7314 21 20.4 21H3.6C3.26863 21 3 20.7314 3 20.4Z" stroke="currentColor" stroke-width="1.5"/>
</svg>

<svg width="24" height="24" stroke-width="1.5" fill="none" xmlns="http://www.w3.org/2000/svg"><path d="M10 9H6M15.5 11a2.5 2.5 0 1 1 0-5 2.5 2.5 0 0 1 0 5ZM6 6h3M18 18l-4.5-3-2.5 2-5-4" stroke="currentColor" stroke-linecap="round" stroke-linejoin="round"/><path d="M3 20.4V3.6a.6.6 0 0 1 .6-.6h16.8a.6.6 0 0 1 .6.6v16.8a.6.6 0 0 1-.6.6H3.6a.6.6 0 0 1-.6-.6Z" stroke="currentColor"/></svg>
